app/dist/common/images/kanabo-group.svg

<svg height="18" width="18" xmlns="http://www.w3.org/2000/svg"><path d="m0 0h18v18h-18z" fill="#f0f3fa"/><path d="m12.83 4.5v1.17h1.17v1.16h-1.17v1.17h-1.16v-1.17h-1.17v-1.16h1.17v-1.17zm-2.86 1.5-2.18 2.72c.33.92 1.35 2.97 2.71 2.97v1.31c-1.88 0-3.07-2.02-3.6-3.17l-.61.83v2.34h-1.29v-7h1.29v2.63l2.06-2.63z"/></svg>

<!-- by TradingView --><svg xmlns="http://www.w3.org/2000/svg" width="18" height="18"><path fill="#F0F3FA" d="M0 0h18v18H0z"/><path d="M12.83 4.5v1.17H14v1.16h-1.17V8h-1.16V6.83H10.5V5.67h1.17V4.5h1.16zM9.97 6L7.79 8.72c.33.92 1.35 2.97 2.71 2.97V13c-1.88 0-3.07-2.02-3.6-3.17l-.61.83V13H5V6h1.29v2.63L8.35 6h1.62z"/></svg>
